material/.icons/material/jellyfish-outline.svg

<svg xmlns="http://www.w3.org/2000/svg" viewBox="0 0 24 24"><path d="M12 4c3.8 0 6.5 2.8 6.5 6.8a18.311 18.311 0 01-13 0C5.5 6.8 8.2 4 12 4m0-2c-4.7 0-8.5 3.5-8.5 8.9.06.8.56 1.5 1.3 1.8l1.7.5v2.3a.5.5 0 01-.5.5.5.5 0 01-.5-.5.898.898 0 00-1-1 .898.898 0 00-1 1A2.405 2.405 0 005.9 18H6c1.41.06 2.56-1.09 2.5-2.5v-1.8h1v5.7c0 .67-1 .67-1 0a.898.898 0 00-1-1 .898.898 0 00-1 1c-.11 1.4 1 2.6 2.4 2.6H9c1.41.06 2.56-1.09 2.5-2.5V14h1v5.5A2.394 2.394 0 0015 22h.1c1.37 0 2.46-1.14 2.4-2.5 0-1.33-2-1.33-2 0 0 .67-1 .67-1 0v-5.7h1v1.8c0 1.36 1.13 2.46 2.5 2.4h.1c1.37 0 2.46-1.14 2.4-2.5 0-1.33-2-1.33-2 0 0 .67-1 .67-1 0v-2.3l1.7-.5c.72-.34 1.21-1.02 1.3-1.8C20.5 5.5 16.7 2 12 2m0 4.2c-1.47.4-2.76 1.33-3.6 2.6-.4.53-1.2-.07-.8-.6a7.47 7.47 0 014.2-3 .5.5 0 01.6.4c.1.3-.1.5-.4.6z"/></svg>

<?xml version="1.0" encoding="UTF-8"?><!DOCTYPE svg PUBLIC "-//W3C//DTD SVG 1.1//EN" "http://www.w3.org/Graphics/SVG/1.1/DTD/svg11.dtd"><svg xmlns="http://www.w3.org/2000/svg" xmlns:xlink="http://www.w3.org/1999/xlink" version="1.1" id="mdi-jellyfish-outline" width="24" height="24" viewBox="0 0 24 24"><path d="M12,4C15.8,4 18.5,6.8 18.5,10.8C14.31,12.39 9.69,12.39 5.5,10.8C5.5,6.8 8.2,4 12,4M12,2C7.3,2 3.5,5.5 3.5,10.9C3.56,11.7 4.06,12.4 4.8,12.7L6.5,13.2V15.5A0.5,0.5 0 0,1 6,16A0.5,0.5 0 0,1 5.5,15.5C5.57,14.92 5.08,14.43 4.5,14.5C3.92,14.43 3.43,14.92 3.5,15.5C3.44,16.86 4.54,18 5.9,18H6C7.41,18.06 8.56,16.91 8.5,15.5V13.7H9.5V19.4C9.5,20.07 8.5,20.07 8.5,19.4C8.57,18.82 8.08,18.33 7.5,18.4C6.92,18.33 6.43,18.82 6.5,19.4C6.39,20.8 7.5,22 8.9,22H9C10.41,22.06 11.56,20.91 11.5,19.5V14H12.5V19.5C12.44,20.91 13.59,22.06 15,22H15.1C16.47,22 17.56,20.86 17.5,19.5C17.5,18.17 15.5,18.17 15.5,19.5C15.5,20.17 14.5,20.17 14.5,19.5V13.8H15.5V15.6C15.5,16.96 16.63,18.06 18,18H18.1C19.47,18 20.56,16.86 20.5,15.5C20.5,14.17 18.5,14.17 18.5,15.5C18.5,16.17 17.5,16.17 17.5,15.5V13.2L19.2,12.7C19.92,12.36 20.41,11.68 20.5,10.9C20.5,5.5 16.7,2 12,2M12,6.2C10.53,6.6 9.24,7.53 8.4,8.8C8,9.33 7.2,8.73 7.6,8.2C8.6,6.73 10.09,5.67 11.8,5.2C12.08,5.14 12.35,5.32 12.4,5.6C12.5,5.9 12.3,6.1 12,6.2Z" /></svg>
